www/source/img/svg/icon-calendar.svg

<svg width="21" height="21" viewBox="0 0 21 21" fill="none" xmlns="http://www.w3.org/2000/svg">
<g clip-path="url(#clip0)">
<path d="M5.90625 18.375H8.21231C7.14353 17.083 6.55995 15.458 6.5625 13.7812C6.5625 11.34 7.77394 9.18094 9.62981 7.875H2.625V15.0938C2.625 15.964 2.9707 16.7986 3.58606 17.4139C4.20141 18.0293 5.03601 18.375 5.90625 18.375Z" fill="#FF6D1C"/>
<path d="M18.375 6.5625H2.625V5.90625C2.625 5.03601 2.9707 4.20141 3.58606 3.58606C4.20141 2.9707 5.03601 2.625 5.90625 2.625H15.0938C15.964 2.625 16.7986 2.9707 17.4139 3.58606C18.0293 4.20141 18.375 5.03601 18.375 5.90625V6.5625Z" fill="#FF6D1C"/>
<path d="M13.7812 19.6875C14.5569 19.6875 15.3249 19.5347 16.0415 19.2379C16.7581 18.9411 17.4092 18.506 17.9576 17.9576C18.506 17.4092 18.9411 16.7581 19.2379 16.0415C19.5347 15.3249 19.6875 14.5569 19.6875 13.7812C19.6875 13.0056 19.5347 12.2376 19.2379 11.521C18.9411 10.8044 18.506 10.1533 17.9576 9.6049C17.4092 9.05645 16.7581 8.6214 16.0415 8.32459C15.3249 8.02777 14.5569 7.875 13.7812 7.875C12.2148 7.875 10.7125 8.49726 9.6049 9.6049C8.49726 10.7125 7.875 12.2148 7.875 13.7812C7.875 15.3477 8.49726 16.85 9.6049 17.9576C10.7125 19.0652 12.2148 19.6875 13.7812 19.6875ZM13.125 11.1562C13.125 10.9822 13.1941 10.8153 13.3172 10.6922C13.4403 10.5691 13.6072 10.5 13.7812 10.5C13.9553 10.5 14.1222 10.5691 14.2453 10.6922C14.3684 10.8153 14.4375 10.9822 14.4375 11.1562V13.125H15.75C15.924 13.125 16.091 13.1941 16.214 13.3172C16.3371 13.4403 16.4062 13.6072 16.4062 13.7812C16.4062 13.9553 16.3371 14.1222 16.214 14.2453C16.091 14.3684 15.924 14.4375 15.75 14.4375H13.7812C13.6072 14.4375 13.4403 14.3684 13.3172 14.2453C13.1941 14.1222 13.125 13.9553 13.125 13.7812V11.1562Z" fill="#FF6D1C"/>
<rect x="3" y="20" width="23" height="3" fill="#C4C4C4"/>
</g>
<defs>
<clipPath id="clip0">
<rect width="21" height="21" fill="white"/>
</clipPath>
</defs>
</svg>

<svg width="21" height="21" fill="none" xmlns="http://www.w3.org/2000/svg"><g clip-path="url(#clip0)"><path d="M5.906 18.375h2.306a7.19 7.19 0 01-1.65-4.594c0-2.441 1.212-4.6 3.068-5.906H2.625v7.219a3.281 3.281 0 003.281 3.281zM18.375 6.563H2.625v-.657a3.281 3.281 0 013.281-3.281h9.188a3.281 3.281 0 013.281 3.281v.657z" fill="#FF6D1C"/><path d="M13.781 19.688a5.907 5.907 0 100-11.814 5.907 5.907 0 000 11.814zm-.656-8.532a.656.656 0 111.313 0v1.969h1.312a.656.656 0 110 1.313h-1.969a.656.656 0 01-.656-.657v-2.625z" fill="#FF6D1C"/><path fill="#C4C4C4" d="M3 20h23v3H3z"/></g><defs><clipPath id="clip0"><path fill="#fff" d="M0 0h21v21H0z"/></clipPath></defs></svg>
